images/icons/dark/time.svg

<svg height="80" viewBox="0 0 80 80" width="80" xmlns="http://www.w3.org/2000/svg" xmlns:xlink="http://www.w3.org/1999/xlink"><defs><path id="a" d="m35 .00040385c19.3294231 0 35 15.66923075 35 34.99999995 0 19.3294231-15.6705769 35-35 35s-35-15.6705769-35-35c0-19.3307692 15.6705769-34.99999995 35-34.99999995zm2.6923077 64.48749995c14.1844231-1.2855769 25.5096154-12.6107692 26.7951923-26.7951923h-4.9875v-5.3846153h4.9875c-1.2855769-14.1844231-12.6107692-25.50961543-26.7951923-26.79653851v4.98884611h-5.3846154v-4.98884611c-14.1844231 1.28692308-25.50961538 12.61211541-26.7951923 26.79653851h4.9875v5.3846153h-4.9875c1.28557692 14.1844231 12.6107692 25.5096154 26.7951923 26.7951923v-4.9875h5.3846154zm0-46.9879038v14.8076923h6.7307692v5.3846154h-12.1153846v-20.1923077z"/><filter id="b" height="102.9%" width="105.7%" x="-1.4%" y="-1.4%"><feOffset dx="2" dy="0" in="SourceAlpha" result="shadowOffsetOuter1"/><feColorMatrix in="shadowOffsetOuter1" type="matrix" values="0 0 0 0 0.0901960784   0 0 0 0 0.882352941   0 0 0 0 0.996078431  0 0 0 1 0"/></filter><path id="c" d="m37 .00040385c19.3294231 0 35 15.66923075 35 34.99999995 0 19.3294231-15.6705769 35-35 35s-35-15.6705769-35-35c0-19.3307692 15.6705769-34.99999995 35-34.99999995zm2.6923077 64.48749995c14.1844231-1.2855769 25.5096154-12.6107692 26.7951923-26.7951923h-4.9875v-5.3846153h4.9875c-1.2855769-14.1844231-12.6107692-25.50961543-26.7951923-26.79653851v4.98884611h-5.3846154v-4.98884611c-14.1844231 1.28692308-25.50961538 12.61211541-26.7951923 26.79653851h4.9875v5.3846153h-4.9875c1.28557692 14.1844231 12.6107692 25.5096154 26.7951923 26.7951923v-4.9875h5.3846154zm0-46.9879038v14.8076923h6.7307692v5.3846154h-12.1153846v-20.1923077z"/><filter id="d" height="101.4%" width="101.4%" x="-.7%" y="-.7%"><feOffset dx="1" dy="0" in="SourceAlpha" result="shadowOffsetInner1"/><feComposite in="shadowOffsetInner1" in2="SourceAlpha" k2="-1" k3="1" operator="arithmetic" result="shadowInnerInner1"/><feColorMatrix in="shadowInnerInner1" type="matrix" values="0 0 0 0 1   0 0 0 0 0.152941176   0 0 0 0 0.321568627  0 0 0 0.5 0"/></filter><mask id="e" fill="#fff"><use fill="#fff" fill-rule="evenodd" xlink:href="#a"/></mask></defs><g fill="none" fill-rule="evenodd" transform="translate(3 5)"><use fill="#000" filter="url(#b)" xlink:href="#a"/><use fill="#ff2752" fill-rule="evenodd" xlink:href="#a"/><g fill="#000" mask="url(#e)"><use fill-rule="evenodd" xlink:href="#c"/><use filter="url(#d)" xlink:href="#c"/></g></g></svg>

<svg height="80" width="80" xmlns="http://www.w3.org/2000/svg" xmlns:xlink="http://www.w3.org/1999/xlink"><defs><path id="a" d="M35 0c19.33 0 35 15.67 35 35S54.33 70 35 70 0 54.33 0 35 15.67 0 35 0zm2.692 64.488c14.185-1.286 25.51-12.61 26.796-26.795H59.5v-5.385h4.987c-1.285-14.184-12.61-25.51-26.795-26.796V10.5h-5.384V5.512C18.123 6.798 6.798 18.124 5.512 32.308H10.5v5.385H5.513c1.285 14.184 12.61 25.51 26.795 26.795V59.5h5.384zm0-46.988v14.808h6.731v5.384H32.308V17.5z"/><filter id="b" height="102.9%" width="105.7%" x="-1.4%" y="-1.4%"><feOffset dx="2" in="SourceAlpha" result="shadowOffsetOuter1"/><feColorMatrix in="shadowOffsetOuter1" values="0 0 0 0 0.0901960784 0 0 0 0 0.882352941 0 0 0 0 0.996078431 0 0 0 1 0"/></filter><path id="d" d="M37 0c19.33 0 35 15.67 35 35S56.33 70 37 70 2 54.33 2 35 17.67 0 37 0zm2.692 64.488c14.185-1.286 25.51-12.61 26.796-26.795H61.5v-5.385h4.987c-1.285-14.184-12.61-25.51-26.795-26.796V10.5h-5.384V5.512C20.123 6.798 8.798 18.124 7.512 32.308H12.5v5.385H7.513c1.285 14.184 12.61 25.51 26.795 26.795V59.5h5.384zm0-46.988v14.808h6.731v5.384H34.308V17.5z"/><filter id="e" height="101.4%" width="101.4%" x="-.7%" y="-.7%"><feOffset dx="1" in="SourceAlpha" result="shadowOffsetInner1"/><feComposite in="shadowOffsetInner1" in2="SourceAlpha" k2="-1" k3="1" operator="arithmetic" result="shadowInnerInner1"/><feColorMatrix in="shadowInnerInner1" values="0 0 0 0 1 0 0 0 0 0.152941176 0 0 0 0 0.321568627 0 0 0 0.5 0"/></filter><mask id="c" fill="#fff"><use fill-rule="evenodd" xlink:href="#a"/></mask></defs><g fill="none" fill-rule="evenodd" transform="translate(3 5)"><use fill="#000" filter="url(#b)" xlink:href="#a"/><use fill="#ff2752" xlink:href="#a"/><g fill="#000" mask="url(#c)"><use xlink:href="#d"/><use filter="url(#e)" xlink:href="#d"/></g></g></svg>
